X: 40712
T: Toss The Feathers
R: reel
M: 4/4
K: Edorian
|:EBBB dBBB|EBBB FDFA|BEBE B3c|1 d2fe dBAF:|2 d2fe dBAd||
BeeB efge|f2de fege|febe febe|f2de feed|
BeeB efge|f2de fgaf|[b4B4] a4|egfe dBAF||

